startshape TREE
CF::MinimumSize= .5

shape TREE 
rule 20 {
CIRCLE [ s .25  h 30 sat 1 b .3 ]
TREE [ y .1 s .97 ]
}
rule 1.5{
BRANCH [ ]
BRANCH [ flip 90 ]
}


shape BRANCH 
{
 TREE [ r 20 ]
}

shape A{
CIRCLE[ h 80 sat 1 b .4 ]
A[x -.5 y 1 s.9 r -10 ]
B[x .5 y 1 s.5 r 10 b .5]
}

shape B{
A[]

}